X: 1
T: Roaring River
R: reel
Z: 2020 John Chambers <jc:trillian.mit.edu>
S: https://www.facebook.com/groups/Fiddletuneoftheday/
S: https://www.facebook.com/groups/Fiddletuneoftheday/photos/
D: https://www.youtube.com/watch?v=Pckt6S78gss
M: C|
L: 1/8
K: G
|:\
"G"g4 e3"D"a- | abag eg3 | "G"g4 e2dB- | BGBB "T"AG3 |\
"G"g4 e3"D"a- | abag eg2g | "G"b2aa g2ef |1gedB AG3 :|2 gedB AG2A ||
|:\
"G"[B3G3]A [B2G2]A[B-G-] | [BG]GAG EG3 | [B3G3]A B2A[B-G-] | [BG]GAG EG3 |\
"D"A3D [A2D2]AB- | BcBB AGED | "G"GEDB, G,4 :|
